public/img/logo.svg

<svg width="138" height="36" viewBox="0 0 138 36" fill="none" xmlns="http://www.w3.org/2000/svg">
<path fill-rule="evenodd" clip-rule="evenodd" d="M138 13.6098C137.69 13.7825 137.4 14.0221 137.068 14.1146C136.162 14.3663 135.237 14.5489 134.323 14.774C133.812 14.9002 133.656 15.2203 133.661 15.7648C133.692 18.9878 133.677 22.2116 133.676 25.4346C133.675 26.3896 133.598 26.4619 132.62 26.4637C132.055 26.4644 131.49 26.4509 130.925 26.4669C130.396 26.4825 130.125 26.2733 130.125 25.7189C130.13 21.1431 130.129 16.5673 130.126 11.9916C130.126 11.5165 130.341 11.2833 130.823 11.289C131.366 11.2953 131.908 11.289 132.451 11.2893C133.469 11.2904 133.469 11.2907 133.567 12.0905C134.674 11.7657 135.798 11.4173 136.934 11.1121C137.376 10.9933 137.785 11.106 138 11.5803V13.6098Z" fill="#3D4954"/>
<path fill-rule="evenodd" clip-rule="evenodd" d="M100.95 5.93506C101.108 6.18001 101.377 6.41563 101.403 6.67165C101.468 7.32556 101.42 7.98845 101.426 8.64755C101.43 9.10217 101.212 9.35335 100.704 9.35439C99.8698 9.35542 99.0358 9.36234 98.2018 9.3492C97.7475 9.34193 97.5051 9.11877 97.5093 8.68215C97.5153 8.00091 97.4732 7.31691 97.5306 6.63982C97.5509 6.3966 97.7989 6.16929 97.9426 5.93506H100.95Z" fill="#3D4954"/>
<path fill-rule="evenodd" clip-rule="evenodd" d="M51.416 12.2918C51.8596 12.0604 52.2822 11.8198 52.7212 11.615C53.9129 11.06 55.1645 10.9432 56.4399 11.1987C56.8247 11.2758 57.2809 11.3925 57.5335 11.6573C58.1625 12.3174 58.7077 12.1094 59.3853 11.7581C60.4747 11.1931 61.6797 11.039 62.8924 11.0728C65.3378 11.1409 66.7762 12.4721 66.9843 14.9877C67.1217 16.6479 67.0965 18.3234 67.114 19.9925C67.1333 21.8437 67.1227 23.6948 67.1161 25.5464C67.1136 26.3073 66.9598 26.4553 66.217 26.4613C65.6599 26.4655 65.1027 26.4645 64.5452 26.4616C63.7295 26.4577 63.6062 26.3445 63.6048 25.5258C63.5995 22.6358 63.6034 19.7462 63.6006 16.8562C63.6002 16.5861 63.5908 16.3146 63.5655 16.046C63.4152 14.4525 62.9513 14.0479 61.3812 14.1341C61.2477 14.1416 61.1135 14.1494 60.9824 14.1728C59.3198 14.4702 59.2708 14.5767 59.289 16.2557C59.3233 19.3931 59.3086 22.5315 59.3188 25.6695C59.3205 26.2391 59.0563 26.4861 58.4946 26.4666C57.8934 26.446 57.291 26.4663 56.6891 26.4613C55.9515 26.4553 55.7896 26.3002 55.7882 25.5442C55.7826 22.722 55.7865 19.8999 55.7854 17.0777C55.7851 16.694 55.7851 16.3097 55.7668 15.9267C55.6982 14.455 54.9357 13.8381 53.5054 14.1799C52.9076 14.3229 52.3312 14.6005 51.7839 14.8915C51.622 14.9774 51.5155 15.3184 51.5145 15.5434C51.4976 18.8394 51.5036 22.1357 51.5022 25.4321C51.5018 26.3885 51.4262 26.4606 50.4615 26.462C49.9044 26.4631 49.3466 26.4467 48.7898 26.4663C48.213 26.4865 47.999 26.2136 48 25.6471C48.0088 21.1094 48.0081 16.5712 48.0007 12.0335C48 11.4869 48.2292 11.2495 48.7656 11.2672C49.2775 11.2839 49.7909 11.2697 50.3035 11.2704C51.3035 11.2719 51.3035 11.2719 51.416 12.2918Z" fill="#3D4954"/>
<path fill-rule="evenodd" clip-rule="evenodd" d="M75.1794 23.6565C75.4479 22.5995 75.7203 21.5436 75.9839 20.4855C76.6506 17.8102 77.3252 15.137 77.9691 12.4559C78.1064 11.8836 78.3501 11.6019 78.9654 11.6425C79.6289 11.6864 80.2972 11.6478 80.9635 11.6538C81.7408 11.6606 81.8714 11.8334 81.6587 12.591C80.8214 15.5686 79.9812 18.5451 79.1393 21.5217C78.4873 23.8279 77.8483 26.1388 77.1712 28.4377C76.7281 29.9419 76.0716 31.3096 74.4255 31.8147C72.6299 32.3659 70.8263 32.2234 69.0429 31.7571C68.8317 31.7016 68.5596 31.3287 68.5565 31.0996C68.5251 28.9022 68.3341 29.1284 70.313 29.2147C70.9115 29.2412 71.5093 29.3091 72.1075 29.3112C73.3031 29.3151 73.7882 28.9428 74.151 27.7911C74.2442 27.4945 74.3169 27.1912 74.4087 26.855C74.3018 26.8271 74.224 26.7868 74.1479 26.7893C73.0381 26.8292 72.3292 26.2541 71.9846 25.2437C71.6088 24.1436 71.3008 23.0191 70.9831 21.8992C70.1031 18.7968 69.2305 15.6923 68.3613 12.5871C68.1287 11.7574 68.2118 11.6581 69.0838 11.6531C69.7277 11.6496 70.3737 11.6839 71.0149 11.6432C71.5896 11.6068 71.8571 11.8472 71.9902 12.3997C72.8202 15.8408 73.6663 19.2783 74.5191 22.714C74.6029 23.0523 74.7659 23.3705 74.8923 23.6982C74.988 23.6844 75.0837 23.6706 75.1794 23.6565Z" fill="#3D4954"/>
<path fill-rule="evenodd" clip-rule="evenodd" d="M124.8 17.4272C124.794 16.1839 124.522 15.1218 123.393 14.4771C122.38 13.8988 121.33 13.9553 120.372 14.5742C119.356 15.2318 119.09 16.2618 119.092 17.4272H124.8ZM119.128 19.9564C118.914 21.9602 120.118 23.3689 122.123 23.3902C123.616 23.4059 125.114 23.2995 126.604 23.185C127.789 23.0939 127.86 23.1113 127.856 24.252C127.85 26.1986 127.992 25.8751 126.252 26.1449C124.371 26.4367 122.461 26.6367 120.568 26.266C117.742 25.7124 115.995 24.0831 115.655 21.2991C115.43 19.451 115.437 17.5075 115.763 15.6789C116.302 12.6562 119 10.8831 122.222 11.0838C125.906 11.3134 128.035 13.3253 128.368 16.9264C128.437 17.6757 128.422 18.4328 128.437 19.1867C128.448 19.7305 128.207 19.9714 127.611 19.9661C125.024 19.9431 122.438 19.9564 119.851 19.9564H119.128Z" fill="#3D4954"/>
<path fill-rule="evenodd" clip-rule="evenodd" d="M87.6853 14.7868C89.7952 14.7868 91.8277 14.7893 93.8599 14.7861C95.5581 14.7833 95.4694 14.6586 95.4602 16.3787C95.4592 16.5797 95.45 16.7817 95.4616 16.9819C95.4961 17.563 95.2136 17.7675 94.6498 17.7626C92.591 17.7461 90.5317 17.7563 88.4725 17.7563H87.6853V18.544C87.6853 20.8013 87.6857 23.0582 87.685 25.3155C87.6846 26.4387 87.6565 26.4647 86.5019 26.4651C85.9199 26.4651 85.3379 26.4563 84.7562 26.4672C84.2622 26.4763 84.0074 26.276 84.0085 25.7571C84.0176 20.9077 83.9652 16.0572 84.0454 11.2092C84.0929 8.33325 85.8158 6.61348 88.7537 6.51827C90.8453 6.45047 92.946 6.66759 95.0429 6.75929C95.5904 6.78353 95.8149 7.06108 95.8125 7.6211C95.8023 9.92583 95.9173 9.56677 93.8912 9.58504C92.5259 9.59733 91.1602 9.57204 89.7952 9.59417C88.3082 9.61841 87.8486 10.0639 87.7223 11.536C87.7012 11.7805 87.6881 12.0264 87.6871 12.272C87.6825 13.0741 87.6853 13.8765 87.6853 14.7868Z" fill="#3D4954"/>
<path fill-rule="evenodd" clip-rule="evenodd" d="M108.936 16.4383C109.711 15.1085 110.482 13.8687 111.165 12.5788C111.528 11.8945 111.954 11.5585 112.723 11.6549C113.242 11.7195 113.775 11.6474 114.3 11.6754C114.564 11.6894 114.824 11.7891 115.087 11.85C114.991 12.0925 114.929 12.3575 114.795 12.573C113.569 14.5412 112.345 16.5111 111.085 18.4556C110.796 18.9017 110.785 19.2058 111.083 19.6566C112.498 21.7944 113.878 23.9577 115.26 26.1198C115.382 26.3128 115.422 26.5631 115.5 26.7865C115.263 26.864 115.028 26.9985 114.788 27.0078C114.043 27.0369 113.294 26.9809 112.552 27.0308C111.99 27.0681 111.657 26.826 111.374 26.3598C110.555 25.0128 109.714 23.6808 108.88 22.3438C108.763 22.1566 108.639 21.9745 108.463 21.7051C108.015 22.455 107.603 23.1429 107.193 23.8322C106.664 24.7226 106.169 25.6386 105.588 26.4914C105.408 26.755 105.007 26.9619 104.689 26.9949C103.972 27.0691 103.243 27.0286 102.52 27.0114C102.34 27.0071 102.033 26.945 102.012 26.854C101.971 26.6711 102.039 26.4175 102.145 26.2493C103.534 24.0384 104.928 21.8303 106.347 19.6401C106.606 19.2406 106.622 18.9681 106.352 18.5578C105.04 16.5667 103.76 14.5519 102.484 12.5354C102.364 12.3471 102.344 12.0896 102.278 11.8644C102.498 11.7987 102.717 11.6829 102.938 11.6764C103.727 11.6531 104.518 11.6929 105.306 11.6574C105.787 11.6359 106.075 11.8385 106.322 12.2424C107.165 13.622 108.029 14.9873 108.936 16.4383Z" fill="#3D4954"/>
<path fill-rule="evenodd" clip-rule="evenodd" d="M100.869 19.2794C100.869 21.5415 100.872 23.8036 100.868 26.0653C100.866 26.8897 100.732 27.0303 99.9837 27.0353C99.4507 27.0389 98.9178 27.0389 98.3848 27.0353C97.6214 27.0303 97.5043 26.9116 97.5036 26.0664C97.4999 21.9769 97.5019 17.887 97.5019 13.7972C97.5019 13.3399 97.5117 12.8829 97.5006 12.4263C97.4872 11.886 97.6982 11.6239 98.2238 11.6422C98.8413 11.6638 99.4608 11.6688 100.078 11.6404C100.658 11.6142 100.879 11.8827 100.875 12.4936C100.861 14.7553 100.869 17.0174 100.869 19.2794Z" fill="#3D4954"/>
<path fill-rule="evenodd" clip-rule="evenodd" d="M23.645 10.3453L7.84532 16.2185C7.81877 16.228 7.79271 16.2389 7.76748 16.2514C7.71176 16.2791 7.66063 16.3139 7.61475 16.3542C7.52167 16.4367 7.44924 16.5443 7.40876 16.6703C7.39565 16.7115 7.38598 16.7542 7.38041 16.7979C7.36353 16.9268 7.38237 17.0538 7.42973 17.1673C7.44973 17.2153 7.4748 17.2606 7.5043 17.3028C7.50528 17.3028 7.50446 17.3032 7.50462 17.3032C7.60016 17.4394 7.74322 17.5423 7.91627 17.5833H7.9166C7.91709 17.5835 7.91742 17.5835 7.91775 17.5835C7.91824 17.5836 7.9184 17.5838 7.91873 17.5838C7.91955 17.584 7.91972 17.584 7.92021 17.5841L15.6445 19.37L24.3826 10.5101C24.1896 10.3142 23.9015 10.2499 23.645 10.3453Z" fill="#2A74DB"/>
<path fill-rule="evenodd" clip-rule="evenodd" d="M24.3061 10.6343L15.568 19.4942L17.3295 27.3263C17.3295 27.3268 17.3296 27.3269 17.3298 27.3276C17.3298 27.3281 17.3298 27.3283 17.33 27.3288C17.33 27.3291 17.3301 27.3293 17.3303 27.3299C17.3303 27.3301 17.3303 27.3301 17.3303 27.3301C17.3708 27.5057 17.472 27.6508 17.6064 27.7477C17.6066 27.7478 17.6067 27.747 17.6069 27.748C17.6484 27.7779 17.6933 27.8033 17.7406 27.8236C17.8526 27.8718 17.9776 27.8907 18.1048 27.8736C18.1479 27.868 18.1901 27.8582 18.2308 27.8447C18.3548 27.8038 18.4612 27.7304 18.5425 27.6358C18.5821 27.5895 18.6164 27.5376 18.6437 27.4811C18.656 27.4556 18.667 27.4291 18.6762 27.4022L24.4686 11.3822C24.5627 11.1221 24.4994 10.83 24.3061 10.6343Z" fill="#2A74DB"/>
<path fill-rule="evenodd" clip-rule="evenodd" d="M27.4807 3.20324C24.1614 0.838461 20.0949 -0.278293 16.0305 0.0590095C11.9179 0.400134 8.04382 2.21974 5.12195 5.18236C-0.863851 11.2516 -1.7019 20.7613 3.12958 27.7938C3.41194 28.2047 3.86373 28.425 4.32307 28.425C4.60969 28.425 4.89925 28.3393 5.15227 28.1605C5.31401 28.0462 5.44544 27.9044 5.5454 27.7461C5.85267 27.2592 5.8602 26.613 5.5141 26.1094C1.48839 20.2495 2.18764 12.3247 7.17693 7.26582C9.61225 4.79654 12.8407 3.28017 16.2676 2.99587C19.6569 2.7144 23.0453 3.64439 25.81 5.6142C26.3024 5.96497 26.9356 5.96247 27.4161 5.65807C27.5759 5.55671 27.719 5.42196 27.8342 5.2558C28.2955 4.59 28.1372 3.67097 27.4807 3.20324Z" fill="#2A74DB"/>
<path fill-rule="evenodd" clip-rule="evenodd" d="M31.7673 7.43695C31.3048 6.77199 30.3984 6.61281 29.7423 7.08204C29.5784 7.19935 29.4455 7.34474 29.3459 7.50724C29.0468 7.99475 29.0455 8.63646 29.3922 9.1351C31.3423 11.9389 32.2646 15.378 31.9898 18.819C31.7117 22.2982 30.2157 25.576 27.7776 28.0483C24.9642 30.9008 21.2336 32.3699 17.4781 32.3698C14.6438 32.3696 11.7952 31.5325 9.31774 29.8216C8.81776 29.4763 8.18111 29.4904 7.7044 29.8063C7.54872 29.9095 7.41009 30.0444 7.29882 30.2097C6.84702 30.8823 7.01859 31.7989 7.68179 32.257C10.6563 34.311 14.074 35.3159 17.4767 35.3156C21.9814 35.3153 26.4582 33.5532 29.8324 30.1319C32.7577 27.1657 34.5526 23.2325 34.8863 19.057C35.2161 14.9299 34.1083 10.8032 31.7673 7.43695Z" fill="#2A74DB"/>
<mask id="mask0" mask-type="alpha" maskUnits="userSpaceOnUse" x="2" y="1" width="26" height="27">
<path fill-rule="evenodd" clip-rule="evenodd" d="M2.11133 14.794V1.91211H27.5678V14.794V27.676H2.11133V14.794Z" fill="white"/>
</mask>
<g mask="url(#mask0)">
<path fill-rule="evenodd" clip-rule="evenodd" d="M5.66591 26.0396C1.64003 20.1798 2.33944 12.2548 7.32873 7.19597C9.76405 4.72668 12.9924 3.21014 16.4194 2.92585C19.8087 2.64437 23.1971 3.57453 25.9618 5.54418C26.4542 5.89527 27.0873 5.89245 27.5678 5.58821C24.8743 3.29439 21.4005 1.91211 17.6079 1.91211C9.0494 1.91211 2.11133 8.94695 2.11133 17.6248C2.11133 21.4481 3.45853 24.9517 5.69737 27.6761C6.00447 27.1894 6.01201 26.5434 5.66591 26.0396Z" fill="#2A74DB"/>
</g>
</svg>

<svg width="138" height="36" fill="none" xmlns="http://www.w3.org/2000/svg"><path fill-rule="evenodd" clip-rule="evenodd" d="M138 13.61c-.31.173-.6.412-.932.505-.906.251-1.831.434-2.745.659-.511.126-.667.446-.662.99.031 3.224.016 6.448.015 9.67-.001.956-.078 1.028-1.056 1.03-.565 0-1.13-.013-1.695.003-.529.016-.8-.194-.8-.748.005-4.576.004-9.152.001-13.727 0-.476.215-.709.697-.703.543.006 1.085 0 1.628 0 1.018.001 1.018.002 1.116.802 1.107-.325 2.231-.674 3.367-.979.442-.119.851-.006 1.066.468v2.03zm-37.05-7.675c.158.245.427.48.453.737.065.654.017 1.316.023 1.976.004.454-.214.705-.722.706-.834.001-1.668.008-2.502-.005-.454-.007-.697-.23-.693-.667.006-.681-.036-1.365.022-2.042.02-.243.268-.47.412-.705h3.007zm-49.534 6.357c.444-.232.866-.472 1.305-.677 1.192-.555 2.444-.672 3.719-.416.385.077.84.194 1.093.458.63.66 1.175.452 1.852.101 1.09-.565 2.295-.719 3.507-.685 2.446.068 3.884 1.4 4.092 3.915.138 1.66.113 3.335.13 5.005.02 1.85.009 3.702.002 5.553-.002.761-.156.91-.899.915-.557.005-1.114.004-1.672 0-.816-.003-.939-.116-.94-.935-.005-2.89-.002-5.78-.004-8.67 0-.27-.01-.541-.035-.81-.15-1.593-.615-1.998-2.185-1.912a3.336 3.336 0 0 0-.399.039c-1.662.297-1.711.404-1.693 2.083.034 3.137.02 6.276.03 9.413.002.57-.263.817-.824.798-.602-.021-1.204 0-1.806-.006-.737-.006-.9-.16-.9-.917-.006-2.822-.003-5.644-.004-8.466 0-.384 0-.768-.018-1.151-.069-1.472-.831-2.089-2.262-1.747-.597.143-1.174.42-1.721.712-.162.085-.268.426-.27.651-.016 3.296-.01 6.593-.012 9.89 0 .956-.076 1.028-1.04 1.029-.558.001-1.115-.015-1.672.004-.577.02-.791-.252-.79-.819.009-4.538.008-9.076 0-13.613 0-.547.23-.785.766-.767.512.017 1.025.003 1.538.003 1 .002 1 .002 1.112 1.022zM75.18 23.657c.268-1.058.54-2.113.804-3.172.667-2.675 1.341-5.348 1.985-8.03.137-.571.381-.853.996-.813.664.044 1.332.006 1.998.012.778.007.908.18.696.937-.838 2.978-1.678 5.954-2.52 8.93-.652 2.307-1.29 4.618-1.968 6.917-.443 1.504-1.1 2.872-2.746 3.377-1.795.55-3.599.408-5.382-.058-.211-.055-.483-.428-.487-.657-.03-2.198-.222-1.972 1.757-1.885.599.026 1.196.094 1.794.096 1.196.004 1.681-.368 2.044-1.52.093-.297.166-.6.258-.936-.107-.028-.185-.068-.261-.066-1.11.04-1.819-.535-2.163-1.545-.376-1.1-.684-2.225-1.002-3.345-.88-3.102-1.752-6.207-2.622-9.312-.232-.83-.15-.929.723-.934.644-.003 1.29.03 1.93-.01.576-.036.843.204.976.757a1604.5 1604.5 0 0 0 2.53 10.314c.083.338.246.657.372.984l.287-.041zm49.62-6.23c-.006-1.243-.278-2.305-1.407-2.95-1.013-.578-2.063-.522-3.021.097-1.016.658-1.282 1.688-1.28 2.853h5.708zm-5.672 2.53c-.214 2.003.99 3.412 2.995 3.433 1.493.016 2.991-.09 4.481-.205 1.185-.091 1.256-.074 1.252 1.067-.006 1.947.136 1.623-1.604 1.893-1.881.292-3.791.492-5.684.121-2.826-.554-4.573-2.183-4.913-4.967-.225-1.848-.218-3.791.108-5.62.539-3.023 3.237-4.796 6.459-4.595 3.684.23 5.813 2.241 6.146 5.842.069.75.054 1.507.069 2.26.011.544-.23.785-.826.78-2.587-.023-5.173-.01-7.76-.01h-.723zm-31.443-5.17c2.11 0 4.143.002 6.175 0 1.698-.004 1.61-.128 1.6 1.592 0 .2-.01.403.002.603.034.581-.248.785-.812.78-2.059-.016-4.118-.006-6.178-.006h-.787v7.559c0 1.124-.029 1.15-1.183 1.15-.582 0-1.164-.009-1.746.002-.494.01-.749-.191-.748-.71.01-4.85-.043-9.7.037-14.548.048-2.876 1.77-4.596 4.709-4.69 2.091-.069 4.192.149 6.289.24.547.025.772.302.77.862-.01 2.305.104 1.946-1.922 1.964-1.365.012-2.73-.013-4.096.01-1.487.023-1.946.469-2.073 1.941-.02.245-.034.49-.035.736-.004.802-.002 1.604-.002 2.515zm21.251 1.651c.775-1.33 1.546-2.57 2.229-3.86.363-.683.789-1.02 1.558-.923.519.065 1.052-.008 1.577.02.264.014.524.114.787.175-.096.242-.158.508-.292.723-1.226 1.968-2.45 3.938-3.71 5.883-.289.446-.3.75-.002 1.2 1.415 2.138 2.795 4.302 4.177 6.464.122.193.162.443.24.666-.237.078-.472.212-.712.222-.745.029-1.494-.027-2.236.023-.562.037-.895-.205-1.178-.671-.819-1.347-1.66-2.68-2.494-4.016-.117-.187-.241-.37-.417-.639-.448.75-.86 1.438-1.27 2.127-.529.89-1.024 1.807-1.605 2.66-.18.263-.581.47-.899.503-.717.074-1.446.034-2.169.016-.18-.004-.487-.066-.508-.157-.041-.183.027-.436.133-.605a561.365 561.365 0 0 1 4.202-6.609c.259-.4.275-.672.005-1.082a387.971 387.971 0 0 1-3.868-6.023c-.12-.188-.14-.445-.206-.67.22-.066.439-.182.66-.189.789-.023 1.58.017 2.368-.019.481-.021.769.181 1.016.585.843 1.38 1.707 2.745 2.614 4.196zm-8.067 2.842c0 2.261.003 4.524-.001 6.785-.002.825-.136.965-.884.97-.533.004-1.066.004-1.6 0-.763-.005-.88-.123-.88-.969-.004-4.09-.002-8.179-.002-12.269 0-.457.01-.914-.001-1.37-.014-.541.197-.803.723-.785a22.93 22.93 0 0 0 1.854-.002c.58-.026.801.243.797.854-.014 2.261-.006 4.523-.006 6.785z" fill="#3D4954"/><path fill-rule="evenodd" clip-rule="evenodd" d="M23.645 10.345l-15.8 5.873a.727.727 0 0 0-.23.136.712.712 0 0 0-.185.813.72.72 0 0 0 .074.136c.001 0 0 0 0 0a.7.7 0 0 0 .412.28h.002l.002.001 7.725 1.786 8.738-8.86a.695.695 0 0 0-.738-.165zm.661.289l-8.738 8.86 1.761 7.832v.002h.001v.002c.04.176.142.32.276.418 0 0 0-.001 0 0a.704.704 0 0 0 .499.126.7.7 0 0 0 .571-.471l5.793-16.02a.718.718 0 0 0-.163-.749z" fill="#2A74DB"/><path fill-rule="evenodd" clip-rule="evenodd" d="M27.48 3.203A17.293 17.293 0 0 0 16.03.06 17.356 17.356 0 0 0 5.123 5.182c-5.986 6.07-6.824 15.58-1.992 22.612.282.41.734.631 1.193.631.287 0 .576-.086.83-.265a1.49 1.49 0 0 0 .362-2.051C1.487 20.25 2.187 12.325 7.176 7.266a14.464 14.464 0 0 1 9.09-4.27c3.39-.282 6.778.648 9.543 2.618a1.437 1.437 0 0 0 2.024-.358 1.487 1.487 0 0 0-.353-2.053zm4.287 4.234a1.44 1.44 0 0 0-2.421.07c-.3.488-.3 1.13.046 1.628a14.914 14.914 0 0 1 2.598 9.684 14.843 14.843 0 0 1-4.212 9.23 14.443 14.443 0 0 1-10.3 4.32 14.33 14.33 0 0 1-8.16-2.547 1.437 1.437 0 0 0-1.614-.016 1.486 1.486 0 0 0-.023 2.45 17.193 17.193 0 0 0 9.796 3.06 17.33 17.33 0 0 0 12.355-5.184 17.81 17.81 0 0 0 5.054-11.075c.33-4.127-.778-8.254-3.119-11.62z" fill="#2A74DB"/><mask id="a" maskUnits="userSpaceOnUse" x="2" y="1" width="26" height="27"><path fill-rule="evenodd" clip-rule="evenodd" d="M2.111 14.794V1.912h25.457v25.764H2.11V14.794z" fill="#fff"/></mask><g mask="url(#a)"><path fill-rule="evenodd" clip-rule="evenodd" d="M5.666 26.04C1.64 20.18 2.339 12.255 7.329 7.196a14.464 14.464 0 0 1 9.09-4.27 14.41 14.41 0 0 1 9.543 2.618 1.437 1.437 0 0 0 1.606.044 15.307 15.307 0 0 0-9.96-3.676C9.049 1.912 2.11 8.947 2.11 17.625a15.78 15.78 0 0 0 3.586 10.051 1.49 1.49 0 0 0-.031-1.636z" fill="#2A74DB"/></g></svg>
